packages/core/src/svg/ui/arrow-right-dashed.svg

<svg xmlns="http://www.w3.org/2000/svg" viewBox="0 0 24 24"><g fill="none" fill-rule="evenodd"><path d="M0 0h24v24H0z"/><path d="M14 5.5L12.5 7l5 5-5 5 1.5 1.5 6.5-6.5L14 5.5z" fill="currentColor"/><path d="M15.5 13l1-1-1-1H14v2h1.5zM10 11h2v2h-2v-2zM8 13v-2H6v2h2z" fill="currentColor"/></g></svg>

<svg width="24" height="24" viewBox="0 0 24 24" fill="none" xmlns="http://www.w3.org/2000/svg">
<path d="M14 5.5L12.5 7L17.5 12L12.5 17L14 18.5L20.5 12L14 5.5Z" fill="currentColor"/>
<path d="M15.5 13L16.5 12L15.5 11H14V13H15.5Z" fill="currentColor"/>
<path d="M10 11H12V13H10V11Z" fill="currentColor"/>
<path d="M8 13V11H6V13H8Z" fill="currentColor"/>
</svg>
